src/images/filter.svg

<svg viewBox="0 0 32 32" xmlns="http://www.w3.org/2000/svg">
  <title>filter</title>
  <path d="M18 28h-4a2 2 0 0 1-2-2v-7.59L4.59 11A2 2 0 0 1 4 9.59V6a2 2 0 0 1 2-2h20a2 2 0 0 1 2 2v3.59a2 2 0 0 1-.59 1.41L20 18.41V26a2 2 0 0 1-2 2ZM6 6v3.59l8 8V26h4v-8.41l8-8V6Z"/>
  <path d="M0 0h32v32H0z" data-name="&lt;Transparent Rectangle&gt;" style="fill:none"/>
</svg>

<svg id="icon" xmlns="http://www.w3.org/2000/svg" viewBox="0 0 32 32"><defs><style>.cls-1{fill:none;}</style></defs><title>filter</title><path d="M18,28H14a2,2,0,0,1-2-2V18.41L4.59,11A2,2,0,0,1,4,9.59V6A2,2,0,0,1,6,4H26a2,2,0,0,1,2,2V9.59A2,2,0,0,1,27.41,11L20,18.41V26A2,2,0,0,1,18,28ZM6,6V9.59l8,8V26h4V17.59l8-8V6Z"/><rect id="_Transparent_Rectangle_" data-name="&lt;Transparent Rectangle&gt;" class="cls-1" width="32" height="32"/></svg>
